**kern
*staff1
*head[head1]
*solo[solo1]
*solo[solo2]
*solo[solo3]
*solo[solo4]
*solo[solo5]
*clefG2
*k[]
*A-:
*M4/4
*>head1
{8e-/L
8a-/
8dd-/J
=1
8cc/L
8a-/
8e-/
8c/J
4f/
8r
8c/
=2
8d-/L
8cc/
8b-/
[8e/J
8e/]
4cc\
8b-\
=3
12g/L
12g#/
12a/J
8b-/L
8gn/J
8a-/L
8e-/
8f/
8g-/J}
=4
4r
{8r
[8b\
8b/L]
[8a-/
8a-/]
8b/J
=5
2.b-\}
4r
=6
8r
{4a-/
8e/
8a-/L
8b-/
8a-/
[8g/J
=7
8g/L]
[8b-/J
4b-\]
8g/L
8e-/
8c/
8G/J
=8
8G-/L
[8d/J
2d/_
8d/L]
8c/J
=9
4d-/}
4r
8r
{4a-/
8f/
=10
8a-/L
8b-/
8a-/
8e/J
8a-/L
8b-/
8a-/
[8g/J
=11
8g/L]
8e-/
8f/
[8g-/J
4g-/]
8r
8en/
=12
8f/L
8a-/
8b-/
8a-/J
8cc/L
8e-/
8a-/
8dd-/J
=13
8f/L
8a-/
8b-/
8a-/J
8cc\L
[8cc\J
4cc\]}
=14:|!
4a-/}
4r
8r
*>solo1
{8B/
12c/L
12e-/
12g/J
=15||
8b-/L
8a/
8a-/
8f/J
8d-/L
8c/
8B-/
8A-/J
=16
12G/L
12B-/
12e/J
8e-/L
8c/J
12d-/L
12e-/
12d-/J
8c/L
8B-/J
=17
8A-/L
8G/
8G-/
8A-/J
8f/L
8e/
8e-/
8d/J
=18
8d-/L
8A-/
8B-/
[8Bn/J
4.B/]
[8a-/
=19
8a-/L]
8B-/J
[2Bn/
8B/L]
[8a-/J
=20
8a-/L]
8B/J
2c/}
4r
=21
4r
24g/LL
24a-/
24g/JJ
8f/
8e-/L
8d-/
8c/
8B-/J
=22
8A/L
8B-/
8c/
8A/J
8B-/
24cc\LL
24b-\
24a-\JJ
8f/L
8e-/J
=23
8d-/L
8c/
8B-/
8A-/J
8G/L
8B-/
8d-/
8e/J
=24
8e-/L
8d-/J
12c/L
12e-/
12g/J
8a-/L
[8e-/J
4e-/]}
=25
2r
4r
8r
*>solo1
{8b\
=26
4cc\
4ee-\
4gg\
8aa-\L
8ee-\J}
=27||
4r
8r
{8cc\
8dd-\L
16ee-\L
16dd-\J
8cc\
8b-\J
=28
8a-/L
8g-/
8e-/
8B-/J
8d-/L
8Bn/
8c/
[8f/J
=29
4f/]
24a-/LL
24b-/
24a-/JJ
8g-/
8e/L
8c/
8B-/
8A/J
=30
8A-/L
8G-/J
16F/LL
16A-/
16c/
16e-/JJ
8d-/L
8A-/
8B-/
[8Bn/J
=31
4B/]}
4r
{12g/L
12a-/
12an/J
8b-/L
8g/J
=32
8a-/L
8f/
8d-/
8B/J
8c/L
[8e-/J
4e-/]}
=33
2r
2r
=34
8r
{16B-/LL
16c/JJ
16f/LL
16a-/
16cc/
16ee-/JJ
8dd-\
8r
8r
[8cc\
=35
24cc\LL]1E-:dom
24dd-\
24cc\JJ
8b-/L
8a-/
8f/J
8d-/L
8c/
8B-/
8A-/J
=36
16G/LL
16B-/
16d-/
16e/J
8e-/
8c/J
8d-/L
[8e-/J
4e-/]}
=37
2r
4r
8r
*>solo3
{[8a-/
=38
8a-/]
4cc\
8ff\
4ee-\
4ff\
=39||
4a-/
8ff\L
8ff\J
4ee-\
8ff\L
[8b\J
=40
8b\L]
8cc\
8ee-\
8cc\J
8dd-\L
16ee-\L
16dd-\J
8cc\
8b-\J
=41
8a-/L
8g-/
8e-/
8B-/J
8d-/L
8Bn/
8c/
16a-/L
16g-/JJ
=42
8f/L
8A-/
8B-/
[8Bn/J
4B/]}
4r
=43
2r
{16dd\LK
[8.dd-\J
4dd-\_
=44
4dd-\]
24cc\LL
24dd-\
24cc\JJ
8a-/
8b-/L
8a-/J}
4r
=45
8r
{8B/
12c/L
12e-/
12g/J
8b-/L
8g/
8a/
8f#/J
=46
8d-/L
8B-/J
24a-/LL
24b-/
24a-/JJ
8f/
8d-/L
8c/
8B-/
8A-/J
=47
8G/L
8B-/
8d-/
8e/J
8e-/L
8d-/J
12c/L
12e-/
12g/J
=48
8b-/L
8a-/
8g/
8a-/J
8cc/L
[8e-/J
4e-/]
=49
2r
8r
*>solo4
8B/
12c/L
12e-/
12g/J
=50
4a-/
8r
[8dd\
8dd\L]
[8dd-\
8dd-\]
8b\J
=51||
24b\LL
24cc\
24b\JJ
8a-/L
8b-/
[8a-/J
8a-/]
4g-/
8f/
=52
8e/L
8B/
8d-/
8e/J
8e-/L
8d-/J
12c/L
12e-/
12a-/J
=53
8b-/L
8g-/
8e-/
8B-/J
8d-/L
8Bn/
8c/
[8f/J
=54
4f/]
24a-/LL
24b-/
24a-/JJ
8f/
8e-/L
8c/
8d-/
[8B/J
=55
4B/]}
4r
2r
=56
8r
{8c/
12g/L
12a-/
12an/J
8b-/L
8a-/J
16g/LL
16a-/
16b-/
16cc/JJ
=57
8ee-\L
8cc\J}
4r
2r
=58
8r
{16B-/LL
16d-/JJ
16f/LL
16a-/
16cc/
16ee-/JJ
8dd-\L
8cc\
8b-\
8an\J
=59
8a-/L
8g-/J
12gn\L
12b-\
12dd-\J
4.gg-\
16ff-\LL
16dd-\JJ
=60
8b/L
8a/J
24a-/LL
24an/
24a-/JJ
8g-/
8e/L
8B/
8d-/
8e/J
=61
8e-/L
8c/
8d-/
8B/J
4c/
8e-/L
[8a-/J
=62
4a-/]}
4r
*>solo5
{4e-/
4a-/
=63||
4.b-\
[8e-/
4e-/]}
4r
=64
{4cc\
8cc\L
8dd-\J
8cc\L
8b\
8b-\
8a\J
=65
8a-/L
8g-/
8e-/
8B-/J
8d-/L
8Bn/
8c/
16a-/L
16g-/JJ
=66
4f/}
4r
4r
{16A-/LL
16B-/
16c/
16d-/JJ
=67
16e-/LL
16d-/
16c/
16d-/JJ
16f/LL
16a-/
16cc/
16ee-/JJ
4dd-\
8r
8c/
=68
12cc\L
12cc#\
12dd\J
8ee-\L
8ccn\J
8dd-\L
16ee-\L
16dd-\J
8cc\
8b-\J
=69
8f#/L
8g/
8b-/
8g/J
8a/L
8f#/
8d-/
8B-/J
=70
8a-/
8r
12B-/L
12d-/
12f/J
8a-/L
8f/
8d-/
8B-/J
=71
8a-/L
[8cc/J
4cc\]
8a-/L
8g-/
8f/
8e/J
=72
8e-/L
8A-/
8d-/
8B-/J
2c/}
=73
2r
8r
{8e/
12f/L
12a-/
12cc/J
=74
4.ee-\
8cc\
8dd-\L
8ee-\J}
4r
=75||
4r
{12a-/L
12a-/
12a-/J
8dd\L
[8dd-\J
4dd-\_
=76
4dd-\]
8b/L
8a-/J
4.cc\
16ee-\LL
16cc\JJ
=77
8b-/L
8a/
8a-/
8g-/J
8e-/L
8c/J
24a-/LL
24b-/
24a-/JJ
8g-/
=78
8f/L
8d-/
8B-/
8A-/J
8e-/L
8c/
8d-/
[8en/J
=79
4e/]}
4r
2r
=80
{8cc\
4ee-\
8ff\
8gg\L
8ff\
8ee-\
8cc\J
=81
8g/L
8e-/J
[4g-/
8g-/L]
8en/J
12f/L
12a-/
12cc/J
=82
8ee-\L
8cc\
8dd-\
8b\J}
4r
8r
{24gg-\LL
24een\
24dd-\JJ
=83
8b\L
8b-\J
24a-/LL
24b-/
24a-/JJ
8f/
8e/L
8B/
8d-/
8e/J
=84
8e-/L
8d-/J
12c/L
12e-/
12g/J
8b-/L
8g/
8a-/
16b-/L
16a-/JJ
=85
8g/L
8f/
8e-/
8c/J
8d-/L
16e-/L
16d-/J
8c/
8B-/J
=86
8G/L
8A-/
8B-/
8G/J
8A-/L
[8E-/J
4E-/]}
==
*-
